X: 31
T: Dancing Song (c)
C: Teton Sioux band 1911-1914
N: Derived from sioux031.krn
O: South Dakota, U.S.A.
N: Teton Sioux Music by Frances Densmore, 1918
Z: transcribed to **kern format by Craig Sapp
L: 1/8
M: 2/4
Q: 1/4=58
K: C clef=bass
%%linebreak <none>
E/ E/ EE2 [I:setbarnb 2]| 
E< E (3E D C | 
C4 ]|:  
C B,C2 | 
B,< C (3E C B, | 
A,4 | 
A,< A,A,2 | 
A,< B, (3B, A, A, | 
A,/ A,/ B, A,/ A,3/ | 
A, E,A,2 | 
E,2E, E, | 
E,4 :|]  



